X:1
T:Father O'Flynn
R:Jig
D:Paddy Keenan: quel CD?
S:Cunla (juin 2005)
K:D
M:6/8
Q:140
% partie A
|: "D" dAF DFA | Bed cBc | dcd efg | "G" fdd ecA
 |  "D" dAF DFA | Bed cBc | dcd "G" efg |1 "A" fdc "D" d3 :|2 "A" fdc "D" d2e
% partie B
|: "D" f2f fga | ecA ABc | "G" dcd Bed | cAA AB=c
 | "Em" B2B Bcd | AFD DFA | "D" dcd "G" efg |1 "A" fdc "D" d2e :|2 "A" fdc "D" d3 |]
